public/common/medium_green_we.svg

<svg width="148" height="93" viewBox="0 0 148 93" fill="none" xmlns="http://www.w3.org/2000/svg">
<g id="Color=white">
<g id="Icon">
<path d="M15.9997 77.2036C7.16283 77.2036 0 70.0549 0 61.2356L0 15.968C0 7.14864 7.16283 0 15.9997 0L131.637 0C140.474 0 147.636 7.14864 147.636 15.968V77.2036H15.9997Z" fill="#34D186"/>
<path d="M18.4144 17.4464H29.0752L37.805 42.0971L47.1984 17.4464H53.719L62.9412 41.8193L71.6796 17.4464H82.4089L66.5676 60.7741H59.6659L50.4095 36.085L40.8748 60.7741H34.0502L18.4144 17.4464Z" fill="white"/>
<path d="M132.073 42.2552L97.0813 42.2552C97.5865 45.3359 98.9352 47.7843 101.132 49.6003C103.324 51.4206 106.124 52.3265 109.532 52.3265C113.603 52.3265 117.097 50.9079 120.025 48.0664L129.201 52.3692C126.914 55.6081 124.174 58.0052 120.98 59.5563C117.786 61.1117 113.997 61.8851 109.609 61.8851C102.797 61.8851 97.2526 59.7401 92.9711 55.4543C88.6897 51.1685 86.549 45.7974 86.549 39.3453C86.549 32.735 88.6854 27.2443 92.954 22.8773C97.2226 18.5104 102.574 16.3269 109.014 16.3269C115.851 16.3269 121.408 18.5104 125.694 22.8773C129.976 27.2443 132.116 33.0128 132.116 40.1785L132.073 42.2552ZM121.181 33.6964C120.462 31.2822 119.045 29.3167 116.926 27.8041C114.806 26.2914 112.349 25.5351 109.553 25.5351C106.518 25.5351 103.85 26.3854 101.56 28.0818C100.121 29.1458 98.7896 31.0173 97.5608 33.6964H121.181Z" fill="white"/>
<path d="M141.989 82.4251C143.376 82.4251 144.562 82.9251 145.556 83.9292C146.549 84.9291 147.041 86.1426 147.041 87.5698C147.041 88.9756 146.549 90.1762 145.568 91.1676C144.588 92.1589 143.415 92.6546 142.049 92.6546C140.645 92.6546 139.446 92.1504 138.453 91.1377C137.459 90.125 136.967 88.8986 136.967 87.4544C136.967 86.0657 137.455 84.8821 138.44 83.8993C139.42 82.9165 140.602 82.4251 141.989 82.4251Z" fill="#34D186"/>
</g>
</g>
</svg>

<svg width="148" height="93" fill="none" xmlns="http://www.w3.org/2000/svg"><path d="M16 77.204c-8.837 0-16-7.15-16-15.968V15.968C0 7.148 7.163 0 16 0h115.637c8.837 0 15.999 7.149 15.999 15.968v61.236H16z" fill="#34D186"/><path d="M18.414 17.446h10.661l8.73 24.651 9.393-24.65h6.521l9.222 24.372 8.739-24.373h10.729L66.568 60.774h-6.902L50.41 36.085l-9.535 24.69H34.05L18.414 17.445zM132.073 42.255H97.081c.505 3.08 1.854 5.53 4.051 7.345 2.192 1.82 4.992 2.727 8.4 2.727 4.071 0 7.565-1.42 10.493-4.26l9.176 4.302c-2.287 3.24-5.027 5.636-8.221 7.187-3.194 1.556-6.983 2.33-11.371 2.33-6.812 0-12.356-2.146-16.638-6.432-4.281-4.285-6.422-9.657-6.422-16.109 0-6.61 2.136-12.1 6.405-16.468 4.269-4.367 9.62-6.55 16.06-6.55 6.837 0 12.394 2.183 16.68 6.55 4.282 4.367 6.422 10.136 6.422 17.302l-.043 2.076zm-10.892-8.559c-.719-2.414-2.136-4.38-4.255-5.892-2.12-1.513-4.577-2.269-7.373-2.269-3.035 0-5.703.85-7.993 2.547-1.439 1.064-2.77 2.935-4 5.614h23.621z" fill="#fff"/><path d="M141.989 82.425c1.387 0 2.573.5 3.567 1.504.993 1 1.485 2.214 1.485 3.64 0 1.407-.492 2.607-1.473 3.599-.98.99-2.153 1.487-3.519 1.487-1.404 0-2.603-.505-3.596-1.517-.994-1.013-1.486-2.24-1.486-3.684 0-1.388.488-2.572 1.473-3.555.98-.983 2.162-1.474 3.549-1.474z" fill="#34D186"/></svg>
